src/assets/icons/folder-lock.svg

<svg width="24" height="24" viewBox="0 0 24 24" fill="none" xmlns="http://www.w3.org/2000/svg">
<path d="M 10.6313 17.6313 H 6.5261 C 6.1632 17.6313 5.8151 17.4871 5.5585 17.2305 C 5.3018 16.9739 5.1577 16.6258 5.1577 16.2629 V 7.3683 C 5.1577 7.0054 5.3018 6.6573 5.5585 6.4007 C 5.8151 6.1441 6.1632 5.9999 6.5261 5.9999 H 9.1945 C 9.4233 5.9977 9.6491 6.0529 9.8511 6.1604 C 10.0531 6.2680 10.2249 6.4245 10.3508 6.6157 L 10.9050 7.4367 C 11.0296 7.6259 11.1992 7.7812 11.3986 7.8887 C 11.5981 7.9962 11.8210 8.0525 12.0476 8.0525 H 17.4733 C 17.8363 8.0525 18.1843 8.1967 18.4410 8.4533 C 18.6976 8.7099 18.8417 9.0580 18.8417 9.4209 V 11.1314" stroke="#314158" stroke-width="1.5" stroke-linecap="round" stroke-linejoin="round"/>
<path d="M 18.1574 15.5782 H 14.0522 C 13.6743 15.5782 13.3680 15.8845 13.3680 16.2624 V 18.3150 C 13.3680 18.6929 13.6743 18.9992 14.0522 18.9992 H 18.1574 C 18.5353 18.9992 18.8416 18.6929 18.8416 18.3150 V 16.2624 C 18.8416 15.8845 18.5353 15.5782 18.1574 15.5782 Z" stroke="#314158" stroke-width="1.5" stroke-linecap="round" stroke-linejoin="round"/>
<path d="M 17.4725 15.5795 V 14.2111 C 17.4725 13.8482 17.3283 13.5002 17.0717 13.2435 C 16.8151 12.9869 16.4670 12.8427 16.1041 12.8427 C 15.7412 12.8427 15.3931 12.9869 15.1365 13.2435 C 14.8798 13.5002 14.7357 13.8482 14.7357 14.2111 V 15.5795" stroke="#314158" stroke-width="1.5" stroke-linecap="round" stroke-linejoin="round"/>
</svg>

<svg fill="none" viewBox="0 0 24 24"><path stroke="currentColor" stroke-linecap="round" stroke-linejoin="round" stroke-width="1.5" d="M10.631 17.631H6.526a1.37 1.37 0 0 1-1.368-1.368V7.368A1.37 1.37 0 0 1 6.526 6h2.669a1.37 1.37 0 0 1 1.156.616l.554.82a1.37 1.37 0 0 0 1.143.617h5.425a1.37 1.37 0 0 1 1.369 1.368v1.71M18.157 15.578h-4.105a.684.684 0 0 0-.684.684v2.053c0 .378.306.684.684.684h4.105a.684.684 0 0 0 .685-.684v-2.053a.684.684 0 0 0-.685-.684"/><path stroke="currentColor" stroke-linecap="round" stroke-linejoin="round" stroke-width="1.5" d="M17.473 15.58V14.21a1.369 1.369 0 0 0-2.737 0v1.368"/></svg>
